reset
moveto 0.25 0.25
move 0.40
turn-deg 90.0
color 1
move 0.35
turn-deg 90.0
color 2
move 0.30
turn-deg 90.0
color 3
move 0.25
turn-deg 90.0
color 4
pause
clear
move 0.20
turn-deg 90.0
color 5
move 0.15
turn-deg 90.0
color 6
move 0.10
turnto-deg 22.5
color 7
move 0.4
turn-deg 90.0
color 8
move 0.4
